X:1
T:Bava, LM
T:Bava, LM
T:German Psalter, 1562
T:Public Domain Courtesy of the Cyber Hymnal™
C:German Psalter, 1562
Z:Public Domain
Z:Courtesy of the Cyber Hymnal™
%%score 1 ( 2 3 ) ( 4 5 )
L:1/8
Q:1/4=108
M:4/4
K:G
V:1 treble 
V:2 treble 
V:3 treble 
V:4 bass 
V:5 bass 
V:1
 G4 G2 A2 | B2 B2 c2 B2 | A8 | B4 c2 B2 | A2 G2 F2 G2 | A8 | d4 c2 B2 | A2 F2 G2 E2 | D8 | %9
 B4 c2 B2 | A2 G2 B2 A2 x2 | G8 |] %12
V:2
 [DG]4 [EG]2 [FA]2 | [GB]2 [GB]2 [Gc]2 [GB]2 | [FA]8 | [GB]4 [Gc]2 [GB]2 | %4
 [FA]2 [EG]2 [^DF]2 [EG]2 | [FA]8 | [Fd]4 [Ec]2 [DB]2 | [EA]2 [DF]2 [DG]2 [^CE]2 | D8 | %9
 [DB]4 [Cc]2 [DB]2 | [DA]2 [B,G]2 B2 z x3 | [B,G]8 |] %12
V:3
 x8 | x8 | x8 | x8 | x8 | x8 | x8 | x8 | x8 | x8 | x4 D3 A2 C | x8 |] %12
V:4
 [G,B,]4 [E,B,]2 [D,D]2 | [G,D]2 [E,E]2 [C,E]2 [G,,D]2 | [D,D]8 | [G,D]4 [E,C]2 [G,D]2 | %4
 [D,D]2 [E,B,]2 [B,,B,]2 [E,B,]2 | [D,C]8 | [D,A,]4 [A,,A,]2 [B,,D]2 | %7
 [C,C]2 [D,A,]2 [G,,B,]2 [A,,A,]2 | [D,F,]8 | G,4 [E,G,]2 G,2 | %10
 [D,F,]2 [E,G,]2 [B,,G,]2 [D,F,]2 x2 | [G,,G,]8 |] %12
V:5
 x8 | x8 | x8 | x8 | x8 | x8 | x8 | x8 | x8 | x6 G,2 | x10 | x8 |] %12

